static/img/site/fivetran.svg

<svg width="14" height="14" viewBox="0 0 14 14" fill="none" xmlns="http://www.w3.org/2000/svg">
<path d="M8.92187 7H10.3219C10.4313 7 10.5406 6.9125 10.5406 6.78125C10.5406 6.75938 10.5406 6.71563 10.5187 6.69375L8.1125 0.13125C8.06875 0.065625 8.00313 0 7.91563 0H6.51562C6.40625 0 6.29688 0.0875 6.29688 0.21875C6.29688 0.240625 6.29688 0.2625 6.31875 0.284375L8.74688 6.89062C8.76875 6.95625 8.83437 7 8.92187 7Z" fill="#1D1D1D"/>
<path d="M8.68281 14H10.0828C10.1922 14 10.3016 13.9125 10.3016 13.7812C10.3016 13.7594 10.3016 13.7375 10.2797 13.7156L5.29219 0.13125C5.27031 0.065625 5.18281 0 5.09531 0H3.69531C3.58594 0 3.47656 0.0875 3.47656 0.21875C3.47656 0.240625 3.47656 0.2625 3.49844 0.284375L8.48594 13.8688C8.50781 13.9563 8.59531 14 8.68281 14Z" fill="#1D1D1D"/>
<path d="M5.90469 14H7.30469C7.41406 14 7.50156 13.9125 7.52344 13.8031C7.52344 13.7812 7.52344 13.7375 7.50156 13.7156L5.07344 7.13125C5.05156 7.04375 4.96406 7 4.87656 7H3.45469C3.34531 7 3.25781 7.10938 3.25781 7.21875C3.25781 7.24062 3.25781 7.2625 3.27969 7.28437L5.68594 13.8688C5.75156 13.9563 5.81719 14 5.90469 14Z" fill="#1D1D1D"/>
<path d="M9.1 0.284375L10.2375 3.36875C10.2594 3.45625 10.3469 3.5 10.4344 3.5H11.8125C11.9219 3.5 12.0312 3.4125 12.0312 3.28125C12.0312 3.25938 12.0313 3.2375 12.0094 3.21563L10.8719 0.13125C10.85 0.065625 10.7844 0 10.6969 0H9.29688C9.1875 0 9.07812 0.0875 9.07812 0.21875C9.07812 0.240625 9.07812 0.2625 9.1 0.284375Z" fill="#1D1D1D"/>
<path d="M3.325 14H4.725C4.83437 14 4.94375 13.9125 4.94375 13.7812C4.94375 13.7594 4.94375 13.7375 4.92187 13.7156L3.78437 10.6312C3.7625 10.5437 3.675 10.5 3.5875 10.5H2.1875C2.07812 10.5 1.96875 10.5875 1.96875 10.7188C1.96875 10.7406 1.96875 10.7625 1.99063 10.7844L3.12812 13.8688C3.15 13.9563 3.2375 14 3.325 14Z" fill="#1D1D1D"/>
</svg>

<svg xmlns="http://www.w3.org/2000/svg" width="14" height="14" fill="none" viewBox="0 0 14 14"><path fill="#1d1d1d" d="M8.922 7h1.4a.22.22 0 0 0 .219-.219c0-.022 0-.065-.022-.087L8.113.13C8.069.066 8.003 0 7.916 0h-1.4a.22.22 0 0 0-.22.219c0 .022 0 .044.023.065l2.428 6.607c.022.065.087.109.175.109M8.683 14h1.4a.22.22 0 0 0 .219-.219c0-.022 0-.043-.022-.065L5.292.13C5.27.066 5.182 0 5.095 0h-1.4a.22.22 0 0 0-.218.219c0 .022 0 .044.021.065L8.486 13.87c.022.087.11.131.197.131M5.905 14h1.4c.11 0 .197-.088.218-.197 0-.022 0-.066-.021-.087L5.073 7.13C5.052 7.044 4.964 7 4.877 7H3.455c-.11 0-.197.11-.197.219 0 .022 0 .043.022.065l2.406 6.585c.066.087.131.131.219.131M9.1.284l1.138 3.085c.021.087.109.131.196.131h1.379a.22.22 0 0 0 .218-.219c0-.022 0-.044-.022-.065L10.872.13A.19.19 0 0 0 10.697 0h-1.4a.22.22 0 0 0-.219.219c0 .022 0 .044.022.065M3.325 14h1.4a.22.22 0 0 0 .219-.219c0-.022 0-.043-.022-.065L3.784 10.63c-.021-.087-.109-.131-.196-.131h-1.4a.22.22 0 0 0-.22.219c0 .022 0 .043.023.065l1.137 3.085c.022.087.11.131.197.131"/></svg>
